img/gooddata-ruby.svg

<svg viewBox="0 0 207 35" xmlns="http://www.w3.org/2000/svg" fill-rule="evenodd" clip-rule="evenodd" stroke-linejoin="round" stroke-miterlimit="1.414"><path fill="none" d="M0 0h206.056v35H0z"/><g fill-rule="nonzero"><path d="M22.994 17.479h-5.43c0 1.855.297 3.626.848 5.292 2.567-.422 4.54-2.614 4.582-5.292M35 18.386c-.339 6.03-3.755 11.237-8.697 14.084 2.588 1.476 5.6 2.34 8.697 2.34V18.386z" fill="#6a6a6a"/><path d="M12.091 17.479H.064A17.34 17.34 0 005.176 29.75l8.506-8.455a5.534 5.534 0 01-1.591-3.816" fill="#8b8b8a"/><path d="M17.542 22.855a5.546 5.546 0 01-3.839-1.56L5.197 29.75c3.161 3.12 7.53 5.081 12.345 5.081.022 0-.021 0 0 0V22.855c-.021 0 .022 0 0 0" fill="#3c3c3b"/><path d="M17.606 11.955c.021 0 0 0 0 0V0c-.021 0 .021 0 0 0A17.605 17.605 0 005.133 5.145l8.485 8.475c1.018-1.012 2.461-1.665 3.988-1.665" fill="#292627"/><path d="M12.091 17.395a5.49 5.49 0 011.548-3.796L5.133 5.123A17.327 17.327 0 00.042 17.395v.084h12.049v-.084" fill="#575756"/><path d="M21.403 13.557l8.506-8.455A17.422 17.422 0 0017.627 0v11.955c1.464.021 2.8.632 3.776 1.602" fill="#7c7b7b"/><path d="M18.391 22.771a5.85 5.85 0 01-.87.063v11.955c3.182 0 6.194-.864 8.761-2.34a17.752 17.752 0 01-3.627-2.741 17.37 17.37 0 01-4.264-6.937" fill="#6f6f6e"/><path d="M35 18.386v-.907H22.994a5.442 5.442 0 01-4.582 5.292 17.28 17.28 0 004.264 6.937 17.806 17.806 0 003.627 2.741c4.942-2.847 8.358-8.054 8.697-14.063" fill="#292627"/><path d="M56.275 18.2v6.289c-1.187.755-3.137 1.178-4.599 1.178-4.133 0-6.506-3.089-6.506-6.711 0-3.778 2.628-6.712 6.336-6.712 2.226 0 3.582.623 4.536 1.667l-1.166 1.311c-.996-1-2.14-1.355-3.37-1.355-2.776 0-4.577 2.289-4.577 5.089 0 2.888 2.055 5.088 4.726 5.088 1.144 0 2.246-.222 2.988-.666v-3.556h-2.691V18.2h4.323z"/><path d="M51.676 25.8c-3.921 0-6.655-2.822-6.655-6.844 0-3.889 2.777-6.845 6.464-6.845 2.098 0 3.561.533 4.642 1.711l.084.089-1.335 1.511-.106-.089c-.869-.889-1.95-1.311-3.285-1.311-2.585 0-4.45 2.089-4.45 4.934 0 2.822 1.971 4.933 4.599 4.933 1.123 0 2.14-.222 2.861-.6v-3.333h-2.692v-1.912h4.62v6.512l-.063.044c-1.293.822-3.328 1.2-4.684 1.2zm-.17-13.4c-3.602 0-6.209 2.756-6.209 6.556 0 3.866 2.628 6.555 6.379 6.555 1.293 0 3.221-.355 4.472-1.111v-6.067h-4.091v1.334h2.692v3.777l-.063.045c-.742.444-1.866.689-3.052.689-2.777 0-4.854-2.245-4.854-5.222 0-3.023 1.992-5.223 4.726-5.223 1.357 0 2.459.423 3.37 1.289l.996-1.111c-1.017-1.022-2.416-1.511-4.366-1.511zm10.364 4.178c2.416 0 4.324 2 4.324 4.489s-1.908 4.489-4.324 4.489-4.323-2-4.323-4.489 1.907-4.489 4.323-4.489zm0 7.466c1.653 0 2.671-1.244 2.671-2.977 0-1.734-1.039-2.978-2.671-2.978-1.653 0-2.67 1.244-2.67 2.978 0 1.733 1.017 2.977 2.67 2.977z"/><path d="M61.87 25.689c-2.501 0-4.451-2.022-4.451-4.622s1.95-4.623 4.451-4.623c2.501 0 4.451 2.023 4.451 4.623.021 2.6-1.95 4.622-4.451 4.622zm0-8.978c-2.352 0-4.196 1.911-4.196 4.356 0 2.444 1.844 4.355 4.196 4.355 2.353 0 4.197-1.911 4.197-4.355 0-2.445-1.844-4.356-4.197-4.356zm0 7.467c-1.674 0-2.819-1.245-2.819-3.111 0-1.867 1.124-3.111 2.819-3.111 1.674 0 2.819 1.244 2.819 3.111 0 1.866-1.145 3.111-2.819 3.111zm0-5.956c-1.526 0-2.543 1.134-2.543 2.822 0 1.689 1.017 2.823 2.543 2.823 1.526 0 2.543-1.134 2.543-2.823 0-1.666-1.017-2.822-2.543-2.822zm9.537-1.644c2.416 0 4.324 2 4.324 4.489s-1.908 4.489-4.324 4.489-4.323-2-4.323-4.489 1.907-4.489 4.323-4.489zm0 7.466c1.653 0 2.671-1.244 2.671-2.977 0-1.734-1.039-2.978-2.671-2.978-1.653 0-2.67 1.244-2.67 2.978 0 1.733 1.017 2.977 2.67 2.977z"/><path d="M71.407 25.689c-2.501 0-4.472-2.022-4.472-4.622s1.95-4.623 4.472-4.623c2.501 0 4.472 2.023 4.472 4.623s-1.971 4.622-4.472 4.622zm0-8.978c-2.352 0-4.196 1.911-4.196 4.356 0 2.444 1.844 4.355 4.196 4.355 2.353 0 4.197-1.911 4.197-4.355 0-2.445-1.844-4.356-4.197-4.356zm0 7.467c-1.674 0-2.818-1.245-2.818-3.111 0-1.867 1.123-3.111 2.818-3.111 1.675 0 2.819 1.244 2.819 3.111 0 1.866-1.123 3.111-2.819 3.111zm0-5.956c-1.526 0-2.543 1.134-2.543 2.822 0 1.689 1.017 2.823 2.543 2.823 1.526 0 2.544-1.134 2.544-2.823 0-1.666-1.018-2.822-2.544-2.822zm13.797 7.111h-1.547v-1.222h-.042c-.594.911-1.738 1.445-2.84 1.445-2.522 0-4.133-1.956-4.133-4.489 0-2.556 1.632-4.489 4.133-4.489 1.166 0 2.289.555 2.84 1.444h.042v-5.644h1.547v12.955zm-1.547-4.266c0-1.734-1.038-2.978-2.67-2.978-1.653 0-2.671 1.244-2.671 2.978 0 1.733 1.039 2.977 2.671 2.977 1.653 0 2.67-1.244 2.67-2.977z"/><path d="M80.796 25.689c-2.501 0-4.281-1.911-4.281-4.622 0-2.734 1.759-4.623 4.281-4.623 1.081 0 2.12.467 2.734 1.223v-5.445h1.823v13.245H83.53v-1c-.636.755-1.674 1.222-2.734 1.222zm0-8.978c-2.352 0-4.005 1.778-4.005 4.356 0 2.555 1.653 4.355 4.005 4.355 1.102 0 2.183-.533 2.734-1.378l.043-.066h.19l.021.133V25.2h1.293V12.511h-1.293v5.645h-.211l-.064-.067c-.509-.822-1.59-1.378-2.713-1.378zm.191 7.467c-1.674 0-2.819-1.245-2.819-3.111 0-1.867 1.123-3.111 2.819-3.111 1.674 0 2.819 1.244 2.819 3.111 0 1.866-1.145 3.111-2.819 3.111zm0-5.956c-1.526 0-2.543 1.134-2.543 2.822 0 1.689 1.017 2.823 2.543 2.823 1.526 0 2.543-1.134 2.543-2.823 0-1.666-1.017-2.822-2.543-2.822zm6.273-5.733h3.71c5.128 0 6.4 4.111 6.4 6.467 0 3.266-2.31 6.377-6.676 6.377H87.26V12.489zm1.653 11.222h1.547c2.777 0 5.151-1.6 5.151-4.755 0-1.623-.806-4.845-4.748-4.845h-1.928v9.6h-.022z"/><path d="M90.694 25.467h-3.561V12.333h3.836c5.15 0 6.528 4.156 6.528 6.6 0 3.267-2.332 6.534-6.803 6.534zm-3.307-.267h3.307c4.493 0 6.527-3.244 6.527-6.244 0-.645-.169-6.334-6.252-6.334h-3.582V25.2zm3.073-1.356h-1.674v-9.888h2.077c4.748 0 4.896 4.488 4.896 5-.02 3.377-2.67 4.888-5.299 4.888zm-1.42-.266h1.42c2.311 0 5.023-1.2 5.023-4.622 0-.489-.127-4.712-4.62-4.712h-1.8v9.334h-.023zm9.538-5.734c.87-.844 2.098-1.266 3.221-1.266 2.395 0 3.412 1.378 3.412 2.844v4.356c0 .6.021 1.089.064 1.555h-1.378c-.042-.422-.042-.866-.042-1.289h-.043c-.678 1.089-1.61 1.512-2.86 1.512-1.505 0-2.819-.889-2.819-2.556 0-2.2 2.013-2.956 4.493-2.956h1.123v-.355c0-.889-.615-1.8-1.95-1.8-1.187 0-1.759.533-2.31.978l-.91-1.023zm4.366 3.378c-1.463 0-3.243.267-3.243 1.645 0 .977.678 1.377 1.76 1.377 1.716 0 2.31-1.333 2.31-2.488v-.534h-.827z"/><path d="M100.973 25.689c-1.738 0-2.946-1.111-2.946-2.689 0-2 1.632-3.089 4.62-3.089h.996v-.222c0-.8-.572-1.667-1.802-1.667-1.059 0-1.61.422-2.119.845l-.212.155-1.102-1.2.106-.089c.827-.822 2.056-1.311 3.327-1.311 2.607 0 3.54 1.534 3.54 2.978v4.378c0 .644.021 1.111.063 1.533l.022.156h-1.654v-.134c-.02-.311-.042-.622-.042-.933-.699.889-1.589 1.289-2.797 1.289zm1.653-5.511c-1.993 0-4.345.489-4.345 2.822 0 1.667 1.356 2.422 2.692 2.422 1.271 0 2.12-.444 2.734-1.444l.042-.067h.212l.042.133c0 .378.021.778.043 1.156h1.102c-.043-.378-.043-.822-.043-1.4v-4.356c0-1.311-.847-2.711-3.264-2.711-1.144 0-2.267.423-3.03 1.134l.742.822.021-.022c.53-.423 1.144-.911 2.29-.911 1.42 0 2.076 1 2.076 1.933v.489h-1.314zM101.44 24.4c-1.208 0-1.886-.533-1.886-1.533 0-.823.593-1.778 3.391-1.778h.953v.689c0 1.2-.636 2.622-2.458 2.622zm1.505-3.022c-1.42 0-3.116.266-3.116 1.511 0 .822.551 1.244 1.632 1.244 1.611 0 2.183-1.2 2.183-2.355v-.4h-.699zm8.647-3.178h-2.226v3.867c0 .955 0 1.955 1.166 1.955.36 0 .784-.044 1.102-.244v1.466c-.36.223-1.08.289-1.399.289-2.395 0-2.416-1.533-2.416-2.889V18.2h-1.78v-1.4h1.78v-2.4h1.547v2.4h2.226v1.4z"/><path d="M110.255 25.689c-2.564 0-2.564-1.756-2.564-3.045v-4.311h-1.78v-1.666h1.78v-2.4h1.801v2.4h2.226v1.689h-2.226v3.733c0 1.133.064 1.822 1.04 1.822.317 0 .741-.044 1.037-.222l.212-.133v1.822l-.063.044c-.424.222-1.208.267-1.463.267zm-4.069-7.622h1.78v4.6c0 1.289 0 2.755 2.29 2.755.338 0 .932-.066 1.25-.244v-1.156c-.318.134-.7.178-.975.178-1.293 0-1.293-1.178-1.293-2.111v-4.022h2.225v-1.134h-2.225v-2.4h-1.272v2.4h-1.78v1.134zm6.931-.223c.847-.844 2.098-1.266 3.221-1.266 2.395 0 3.391 1.378 3.391 2.844v4.356c0 .6.021 1.089.064 1.555h-1.378c-.042-.422-.042-.866-.042-1.289h-.043c-.678 1.089-1.61 1.512-2.84 1.512-1.505 0-2.819-.889-2.819-2.556 0-2.2 2.014-2.956 4.493-2.956h1.124v-.355c0-.889-.615-1.8-1.929-1.8-1.187 0-1.759.533-2.33.978l-.912-1.023zm4.365 3.378c-1.462 0-3.242.267-3.242 1.645 0 .977.678 1.377 1.76 1.377 1.716 0 2.31-1.333 2.31-2.488v-.534h-.828z"/><path d="M115.49 25.689c-1.738 0-2.946-1.111-2.946-2.689 0-2 1.632-3.089 4.62-3.089h.997v-.222c0-.8-.573-1.667-1.802-1.667-1.06 0-1.61.422-2.119.845l-.212.155-1.102-1.2.106-.089c.826-.822 2.056-1.311 3.327-1.311 2.607 0 3.54 1.534 3.54 2.978v4.378c0 .644.021 1.111.063 1.533l.021.156h-1.653v-.134c-.02-.311-.042-.622-.042-.933-.678.889-1.569 1.289-2.798 1.289zm1.674-5.511c-1.992 0-4.344.489-4.344 2.822 0 1.667 1.356 2.422 2.691 2.422 1.272 0 2.12-.444 2.734-1.444l.043-.067h.212l.042.133c0 .378.021.778.042 1.156h1.103a12.438 12.438 0 01-.064-1.4v-4.356c0-1.311-.848-2.711-3.264-2.711-1.144 0-2.268.423-3.052 1.134l.742.822.021-.022c.53-.423 1.145-.911 2.29-.911 1.42 0 2.076 1 2.076 1.933v.489h-1.272zm-1.186 4.222c-1.208 0-1.887-.533-1.887-1.533 0-.823.594-1.778 3.37-1.778h.954v.689c.021 1.2-.636 2.622-2.437 2.622zm1.504-3.022c-1.42 0-3.115.266-3.115 1.511 0 .822.551 1.244 1.611 1.244 1.61 0 2.183-1.2 2.183-2.355v-.4h-.679z"/></g><text x="145.125" y="26.324" font-family="'OpenSans-SemiBold','Open Sans',sans-serif" font-weight="600" font-size="18" fill="#94a1ae" transform="translate(-18.943 -.205)">Rub<tspan x="178.91px 188.56px" y="26.324px 26.324px">yS</tspan>DK</text></svg>

<?xml version="1.0" encoding="UTF-8" standalone="no"?>
<!DOCTYPE svg PUBLIC "-//W3C//DTD SVG 1.1//EN" "http://www.w3.org/Graphics/SVG/1.1/DTD/svg11.dtd">
<svg width="100%" height="100%" viewBox="0 0 207 35" version="1.1" xmlns="http://www.w3.org/2000/svg" xmlns:xlink="http://www.w3.org/1999/xlink" xml:space="preserve" xmlns:serif="http://www.serif.com/" style="fill-rule:evenodd;clip-rule:evenodd;stroke-linejoin:round;stroke-miterlimit:1.41421;">
    <g id="Artboard1" transform="matrix(1.44095,0,0,1,0,0)">
        <rect x="0" y="0" width="143" height="35" style="fill:none;"/>
        <g transform="matrix(0.693987,0,0,1,0,0)">
            <g>
                <path d="M22.994,17.479L17.564,17.479C17.564,19.334 17.861,21.105 18.412,22.771C20.979,22.349 22.952,20.157 22.994,17.479M35,18.386C34.661,24.416 31.245,29.623 26.303,32.47C28.891,33.946 31.903,34.81 35,34.81L35,18.386Z" style="fill:rgb(106,106,106);fill-rule:nonzero;"/>
                <path d="M12.091,17.479L0.064,17.479C0.085,22.265 2.015,26.608 5.176,29.75L13.682,21.295C12.706,20.304 12.112,18.955 12.091,17.479" style="fill:rgb(139,139,138);fill-rule:nonzero;"/>
                <path d="M17.542,22.855C16.058,22.855 14.679,22.244 13.703,21.295L5.197,29.75C8.358,32.87 12.727,34.831 17.542,34.831C17.564,34.831 17.521,34.831 17.542,34.831L17.542,22.855C17.521,22.855 17.564,22.855 17.542,22.855" style="fill:rgb(60,60,59);fill-rule:nonzero;"/>
                <path d="M17.606,11.955C17.627,11.955 17.606,11.955 17.606,11.955L17.606,0C17.585,0 17.627,0 17.606,0C12.748,0 8.315,1.961 5.133,5.145L13.618,13.62C14.636,12.608 16.079,11.955 17.606,11.955" style="fill:rgb(41,38,39);fill-rule:nonzero;"/>
                <path d="M12.091,17.395C12.091,15.94 12.685,14.59 13.639,13.599L5.133,5.123C1.994,8.265 0.042,12.608 0.042,17.395L0.042,17.479L12.091,17.479L12.091,17.395" style="fill:rgb(87,87,86);fill-rule:nonzero;"/>
                <path d="M21.403,13.557L29.909,5.102C26.77,1.961 22.421,0.021 17.627,0L17.627,11.955C19.091,11.976 20.427,12.587 21.403,13.557" style="fill:rgb(124,123,123);fill-rule:nonzero;"/>
                <path d="M18.391,22.771C18.115,22.813 17.818,22.834 17.521,22.834L17.521,34.789C20.703,34.789 23.715,33.925 26.282,32.449C24.945,31.69 23.736,30.762 22.655,29.708C20.724,27.789 19.261,25.428 18.391,22.771" style="fill:rgb(111,111,110);fill-rule:nonzero;"/>
                <path d="M35,18.386L35,17.479L22.994,17.479C22.952,20.157 20.979,22.37 18.412,22.771C19.261,25.407 20.745,27.789 22.676,29.708C23.758,30.762 24.967,31.69 26.303,32.449C31.245,29.602 34.661,24.395 35,18.386" style="fill:rgb(41,38,39);fill-rule:nonzero;"/>
                <g>
                    <path d="M56.275,18.2L56.275,24.489C55.088,25.244 53.138,25.667 51.676,25.667C47.543,25.667 45.17,22.578 45.17,18.956C45.17,15.178 47.798,12.244 51.506,12.244C53.732,12.244 55.088,12.867 56.042,13.911L54.876,15.222C53.88,14.222 52.736,13.867 51.506,13.867C48.73,13.867 46.929,16.156 46.929,18.956C46.929,21.844 48.984,24.044 51.655,24.044C52.799,24.044 53.901,23.822 54.643,23.378L54.643,19.822L51.952,19.822L51.952,18.2L56.275,18.2Z" style="fill-rule:nonzero;"/>
                    <path d="M51.676,25.8C47.755,25.8 45.021,22.978 45.021,18.956C45.021,15.067 47.798,12.111 51.485,12.111C53.583,12.111 55.046,12.644 56.127,13.822L56.211,13.911L54.876,15.422L54.77,15.333C53.901,14.444 52.82,14.022 51.485,14.022C48.9,14.022 47.035,16.111 47.035,18.956C47.035,21.778 49.006,23.889 51.634,23.889C52.757,23.889 53.774,23.667 54.495,23.289L54.495,19.956L51.803,19.956L51.803,18.044L56.423,18.044L56.423,24.556L56.36,24.6C55.067,25.422 53.032,25.8 51.676,25.8ZM51.506,12.4C47.904,12.4 45.297,15.156 45.297,18.956C45.297,22.822 47.925,25.511 51.676,25.511C52.969,25.511 54.897,25.156 56.148,24.4L56.148,18.333L52.057,18.333L52.057,19.667L54.749,19.667L54.749,23.444L54.686,23.489C53.944,23.933 52.82,24.178 51.634,24.178C48.857,24.178 46.78,21.933 46.78,18.956C46.78,15.933 48.772,13.733 51.506,13.733C52.863,13.733 53.965,14.156 54.876,15.022L55.872,13.911C54.855,12.889 53.456,12.4 51.506,12.4ZM61.87,16.578C64.286,16.578 66.194,18.578 66.194,21.067C66.194,23.556 64.286,25.556 61.87,25.556C59.454,25.556 57.547,23.556 57.547,21.067C57.547,18.578 59.454,16.578 61.87,16.578ZM61.87,24.044C63.523,24.044 64.541,22.8 64.541,21.067C64.541,19.333 63.502,18.089 61.87,18.089C60.217,18.089 59.2,19.333 59.2,21.067C59.2,22.8 60.217,24.044 61.87,24.044Z" style="fill-rule:nonzero;"/>
                    <path d="M61.87,25.689C59.369,25.689 57.419,23.667 57.419,21.067C57.419,18.467 59.369,16.444 61.87,16.444C64.371,16.444 66.321,18.467 66.321,21.067C66.342,23.667 64.371,25.689 61.87,25.689ZM61.87,16.711C59.518,16.711 57.674,18.622 57.674,21.067C57.674,23.511 59.518,25.422 61.87,25.422C64.223,25.422 66.067,23.511 66.067,21.067C66.067,18.622 64.223,16.711 61.87,16.711ZM61.87,24.178C60.196,24.178 59.051,22.933 59.051,21.067C59.051,19.2 60.175,17.956 61.87,17.956C63.544,17.956 64.689,19.2 64.689,21.067C64.689,22.933 63.544,24.178 61.87,24.178ZM61.87,18.222C60.344,18.222 59.327,19.356 59.327,21.044C59.327,22.733 60.344,23.867 61.87,23.867C63.396,23.867 64.413,22.733 64.413,21.044C64.413,19.378 63.396,18.222 61.87,18.222ZM71.407,16.578C73.823,16.578 75.731,18.578 75.731,21.067C75.731,23.556 73.823,25.556 71.407,25.556C68.991,25.556 67.084,23.556 67.084,21.067C67.084,18.578 68.991,16.578 71.407,16.578ZM71.407,24.044C73.06,24.044 74.078,22.8 74.078,21.067C74.078,19.333 73.039,18.089 71.407,18.089C69.754,18.089 68.737,19.333 68.737,21.067C68.737,22.8 69.754,24.044 71.407,24.044Z" style="fill-rule:nonzero;"/>
                    <path d="M71.407,25.689C68.906,25.689 66.935,23.667 66.935,21.067C66.935,18.467 68.885,16.444 71.407,16.444C73.908,16.444 75.879,18.467 75.879,21.067C75.879,23.667 73.908,25.689 71.407,25.689ZM71.407,16.711C69.055,16.711 67.211,18.622 67.211,21.067C67.211,23.511 69.055,25.422 71.407,25.422C73.76,25.422 75.604,23.511 75.604,21.067C75.604,18.622 73.76,16.711 71.407,16.711ZM71.407,24.178C69.733,24.178 68.589,22.933 68.589,21.067C68.589,19.2 69.712,17.956 71.407,17.956C73.082,17.956 74.226,19.2 74.226,21.067C74.226,22.933 73.103,24.178 71.407,24.178ZM71.407,18.222C69.881,18.222 68.864,19.356 68.864,21.044C68.864,22.733 69.881,23.867 71.407,23.867C72.933,23.867 73.951,22.733 73.951,21.044C73.951,19.378 72.933,18.222 71.407,18.222ZM85.204,25.333L83.657,25.333L83.657,24.111L83.615,24.111C83.021,25.022 81.877,25.556 80.775,25.556C78.253,25.556 76.642,23.6 76.642,21.067C76.642,18.511 78.274,16.578 80.775,16.578C81.941,16.578 83.064,17.133 83.615,18.022L83.657,18.022L83.657,12.378L85.204,12.378L85.204,25.333ZM83.657,21.067C83.657,19.333 82.619,18.089 80.987,18.089C79.334,18.089 78.316,19.333 78.316,21.067C78.316,22.8 79.355,24.044 80.987,24.044C82.64,24.044 83.657,22.8 83.657,21.067Z" style="fill-rule:nonzero;"/>
                    <path d="M80.796,25.689C78.295,25.689 76.515,23.778 76.515,21.067C76.515,18.333 78.274,16.444 80.796,16.444C81.877,16.444 82.916,16.911 83.53,17.667L83.53,12.222L85.353,12.222L85.353,25.467L83.53,25.467L83.53,24.467C82.894,25.222 81.856,25.689 80.796,25.689ZM80.796,16.711C78.444,16.711 76.791,18.489 76.791,21.067C76.791,23.622 78.444,25.422 80.796,25.422C81.898,25.422 82.979,24.889 83.53,24.044L83.573,23.978L83.763,23.978L83.784,24.111L83.784,25.2L85.077,25.2L85.077,12.511L83.784,12.511L83.784,18.156L83.573,18.156L83.509,18.089C83,17.267 81.919,16.711 80.796,16.711ZM80.987,24.178C79.313,24.178 78.168,22.933 78.168,21.067C78.168,19.2 79.291,17.956 80.987,17.956C82.661,17.956 83.806,19.2 83.806,21.067C83.806,22.933 82.661,24.178 80.987,24.178ZM80.987,18.222C79.461,18.222 78.444,19.356 78.444,21.044C78.444,22.733 79.461,23.867 80.987,23.867C82.513,23.867 83.53,22.733 83.53,21.044C83.53,19.378 82.513,18.222 80.987,18.222ZM87.26,12.489L90.969,12.489C96.098,12.489 97.37,16.6 97.37,18.956C97.37,22.222 95.059,25.333 90.694,25.333L87.26,25.333L87.26,12.489L87.26,12.489ZM88.913,23.711L90.46,23.711C93.237,23.711 95.611,22.111 95.611,18.956C95.611,17.333 94.805,14.111 90.863,14.111L88.935,14.111L88.935,23.711L88.913,23.711Z" style="fill-rule:nonzero;"/>
                    <path d="M90.694,25.467L87.133,25.467L87.133,12.333L90.969,12.333C96.119,12.333 97.497,16.489 97.497,18.933C97.497,22.2 95.165,25.467 90.694,25.467ZM87.387,25.2L90.694,25.2C95.187,25.2 97.221,21.956 97.221,18.956C97.221,18.311 97.052,12.622 90.969,12.622L87.387,12.622L87.387,25.2ZM90.46,23.844L88.786,23.844L88.786,13.956L90.863,13.956C95.611,13.956 95.759,18.444 95.759,18.956C95.738,22.333 93.088,23.844 90.46,23.844ZM89.04,23.578L90.46,23.578C92.771,23.578 95.483,22.378 95.483,18.956C95.483,18.467 95.356,14.244 90.863,14.244L89.062,14.244L89.062,23.578L89.04,23.578ZM98.578,17.844C99.447,17 100.676,16.578 101.799,16.578C104.194,16.578 105.211,17.956 105.211,19.422L105.211,23.778C105.211,24.378 105.232,24.867 105.275,25.333L103.897,25.333C103.855,24.911 103.855,24.467 103.855,24.044L103.812,24.044C103.134,25.133 102.202,25.556 100.951,25.556C99.447,25.556 98.133,24.667 98.133,23C98.133,20.8 100.146,20.044 102.626,20.044L103.749,20.044L103.749,19.689C103.749,18.8 103.134,17.889 101.799,17.889C100.612,17.889 100.04,18.422 99.489,18.867L98.578,17.844ZM102.944,21.222C101.481,21.222 99.701,21.489 99.701,22.867C99.701,23.844 100.379,24.244 101.46,24.244C103.177,24.244 103.77,22.911 103.77,21.756L103.77,21.222L102.944,21.222Z" style="fill-rule:nonzero;"/>
                    <path d="M100.973,25.689C99.235,25.689 98.027,24.578 98.027,23C98.027,21 99.659,19.911 102.647,19.911L103.643,19.911L103.643,19.689C103.643,18.889 103.071,18.022 101.841,18.022C100.782,18.022 100.231,18.444 99.722,18.867L99.51,19.022L98.408,17.822L98.514,17.733C99.341,16.911 100.57,16.422 101.841,16.422C104.448,16.422 105.381,17.956 105.381,19.4L105.381,23.778C105.381,24.422 105.402,24.889 105.444,25.311L105.466,25.467L103.812,25.467L103.812,25.333C103.791,25.022 103.77,24.711 103.77,24.4C103.071,25.289 102.181,25.689 100.973,25.689ZM102.626,20.178C100.633,20.178 98.281,20.667 98.281,23C98.281,24.667 99.637,25.422 100.973,25.422C102.244,25.422 103.092,24.978 103.707,23.978L103.749,23.911L103.961,23.911L104.003,24.044C104.003,24.422 104.024,24.822 104.046,25.2L105.148,25.2C105.105,24.822 105.105,24.378 105.105,23.8L105.105,19.444C105.105,18.133 104.258,16.733 101.841,16.733C100.697,16.733 99.574,17.156 98.811,17.867L99.553,18.689L99.574,18.667C100.104,18.244 100.718,17.756 101.863,17.756C103.283,17.756 103.94,18.756 103.94,19.689L103.94,20.178L102.626,20.178ZM101.439,24.4C100.231,24.4 99.553,23.867 99.553,22.867C99.553,22.044 100.146,21.089 102.944,21.089L103.897,21.089L103.897,21.778C103.897,22.978 103.261,24.4 101.439,24.4ZM102.944,21.378C101.524,21.378 99.828,21.644 99.828,22.889C99.828,23.711 100.379,24.133 101.46,24.133C103.071,24.133 103.643,22.933 103.643,21.778L103.643,21.378L102.944,21.378ZM111.591,18.2L109.365,18.2L109.365,22.067C109.365,23.022 109.365,24.022 110.531,24.022C110.891,24.022 111.315,23.978 111.633,23.778L111.633,25.244C111.273,25.467 110.552,25.533 110.234,25.533C107.839,25.533 107.818,24 107.818,22.644L107.818,18.2L106.038,18.2L106.038,16.8L107.818,16.8L107.818,14.4L109.365,14.4L109.365,16.8L111.591,16.8L111.591,18.2Z" style="fill-rule:nonzero;"/>
                    <path d="M110.255,25.689C107.691,25.689 107.691,23.933 107.691,22.644L107.691,18.333L105.911,18.333L105.911,16.667L107.691,16.667L107.691,14.267L109.492,14.267L109.492,16.667L111.718,16.667L111.718,18.356L109.492,18.356L109.492,22.089C109.492,23.222 109.556,23.911 110.531,23.911C110.849,23.911 111.273,23.867 111.569,23.689L111.781,23.556L111.781,25.378L111.718,25.422C111.294,25.644 110.51,25.689 110.255,25.689ZM106.186,18.067L107.966,18.067L107.966,22.667C107.966,23.956 107.966,25.422 110.255,25.422C110.594,25.422 111.188,25.356 111.506,25.178L111.506,24.022C111.188,24.156 110.806,24.2 110.531,24.2C109.238,24.2 109.238,23.022 109.238,22.089L109.238,18.067L111.463,18.067L111.463,16.933L109.238,16.933L109.238,14.533L107.966,14.533L107.966,16.933L106.186,16.933L106.186,18.067ZM113.117,17.844C113.964,17 115.215,16.578 116.338,16.578C118.733,16.578 119.729,17.956 119.729,19.422L119.729,23.778C119.729,24.378 119.75,24.867 119.793,25.333L118.415,25.333C118.373,24.911 118.373,24.467 118.373,24.044L118.33,24.044C117.652,25.133 116.719,25.556 115.49,25.556C113.985,25.556 112.671,24.667 112.671,23C112.671,20.8 114.685,20.044 117.164,20.044L118.288,20.044L118.288,19.689C118.288,18.8 117.673,17.889 116.359,17.889C115.172,17.889 114.6,18.422 114.028,18.867L113.117,17.844L113.117,17.844ZM117.482,21.222C116.02,21.222 114.24,21.489 114.24,22.867C114.24,23.844 114.918,24.244 115.999,24.244C117.716,24.244 118.309,22.911 118.309,21.756L118.309,21.222L117.482,21.222Z" style="fill-rule:nonzero;"/>
                    <path d="M115.49,25.689C113.752,25.689 112.544,24.578 112.544,23C112.544,21 114.176,19.911 117.164,19.911L118.161,19.911L118.161,19.689C118.161,18.889 117.588,18.022 116.359,18.022C115.299,18.022 114.748,18.444 114.24,18.867L114.028,19.022L112.926,17.822L113.032,17.733C113.858,16.911 115.088,16.422 116.359,16.422C118.966,16.422 119.898,17.956 119.898,19.4L119.898,23.778C119.898,24.422 119.92,24.889 119.962,25.311L119.983,25.467L118.33,25.467L118.33,25.333C118.309,25.022 118.288,24.711 118.288,24.4C117.61,25.289 116.719,25.689 115.49,25.689ZM117.164,20.178C115.172,20.178 112.82,20.667 112.82,23C112.82,24.667 114.176,25.422 115.511,25.422C116.783,25.422 117.631,24.978 118.245,23.978L118.288,23.911L118.5,23.911L118.542,24.044C118.542,24.422 118.563,24.822 118.584,25.2L119.687,25.2C119.644,24.822 119.623,24.378 119.623,23.8L119.623,19.444C119.623,18.133 118.775,16.733 116.359,16.733C115.215,16.733 114.091,17.156 113.307,17.867L114.049,18.689L114.07,18.667C114.6,18.244 115.215,17.756 116.359,17.756C117.779,17.756 118.436,18.756 118.436,19.689L118.436,20.178L117.164,20.178ZM115.978,24.4C114.77,24.4 114.091,23.867 114.091,22.867C114.091,22.044 114.685,21.089 117.461,21.089L118.415,21.089L118.415,21.778C118.436,22.978 117.779,24.4 115.978,24.4ZM117.482,21.378C116.062,21.378 114.367,21.644 114.367,22.889C114.367,23.711 114.918,24.133 115.978,24.133C117.588,24.133 118.161,22.933 118.161,21.778L118.161,21.378L117.482,21.378Z" style="fill-rule:nonzero;"/>
                </g>
            </g>
            <g transform="matrix(1,0,0,1,-18.9425,-0.204699)">
                <text x="145.125px" y="26.324px" style="font-family:'OpenSans-SemiBold', 'Open Sans', sans-serif;font-weight:600;font-size:18px;fill:rgb(148,161,174);">Rub<tspan x="178.91px 188.56px " y="26.324px 26.324px ">yS</tspan>DK</text>
            </g>
        </g>
    </g>
</svg>
